X:1
T:Title
%%score { ( 1 4 ) | ( 2 3 ) }
L:1/8
M:4/4
K:G
V:1 treble nm="Grand Piano"
V:4 treble 
V:2 treble 
V:3 treble 
V:1
 z4 z2[Q:1/4=100] G>A | B2 d2 d>B c>B | [EA]2 [CE]2 [CE]2 [EG]>E | F2 A2 [Fc]2 [Fe]2 | %4
[M:3/4] d2 B4 |[M:1/4] G>A |[M:4/4] B2 d2 d>B c>B | [EA]2 E2 E2 E>E | [^CA]2 [CA]2 [GB]2 [GA]2 | %9
[M:3/4] [Fd]6 |[M:1/4] B>A |[M:4/4] G6 z2 | F6 z2 | c2 [Ec]2 [Fc]2 [ce]2 | [Bd]4 z4 | G6 z2 | %16
 F6 z2 | [^CA]2 [CB]2 [CA]2 [CE]2 | A6 z2 | G6 z2 | F6 z2 | c2 [Ec]2 [Fc]2 [ce]2 | [Bd]4 z4 | %23
 G2 G2 [FA]>[FA] [EG]>[FA] | B2 d2 d2 [Ec]2 | [GB]4 [FA]2 z2 | [DG]6 z2 |] %27
V:2
 z4 z2 [G,B,D]>[G,B,D] | [G,DG]2 [G,B,G]2 [G,B,G]>[G,DG] [G,EG]>[G,DG] | %2
 [C,C]2 [C,G,]2 [C,G,]2 [C,C]>[C,C] | [D,A,C]2 [D,F,C]2 [D,A,]2 [D,C]2 | %4
[M:3/4][K:treble] [G,G]2- [G,DG]4 |[M:1/4] [G,B,D]>[G,B,D] | %6
[M:4/4] [G,DG]2 [G,B,G]2 [G,B,G]>[G,DG] [G,EG]>[K:bass][G,D] | %7
 [C,C]2 [C,G,C]2 [C,G,C]2 [C,G,C]>[C,G,C] | [A,,A,]2 [A,,A,]2 [A,,A,]2 [^C,A,]2 |[M:3/4] [D,A,]6 | %10
[M:1/4] z2 |[M:4/4] z2 [G,B,]>[G,B,] [G,B,]2 z2 | z2 [D,A,]>[D,A,] [D,A,]2 [D,G,C]>[D,F,] | %13
 [D,F,D]2 [D,G,]2 [D,A,]2 [D,D]2 | [G,D]2 z[K:treble] [FA] [G,G]2 z2 | %15
 z2[K:bass] [G,B,]>[G,B,] [G,B,]2 z2 | z2 [D,A,]>[D,A,] [D,A,]2 [D,A,D]>[D,G,D] | %17
 [A,,E,]2 [A,,E,]2 [A,,E,]2 [A,,G,]2 | [F,C]2 z2 z4 | z2 [G,B,]>[G,B,] [G,B,]2 z2 | %20
 z2 [D,A,]>[D,A,] [D,A,]2 [D,G,C]>[D,F,C] | [D,F,D]2 [D,G,]2 [D,A,]2 [D,D]2 | %22
 [G,D]2 z[K:treble] [FA] [G,G]2 [G,B,]>[G,B,] | [G,B,D]2[K:bass] [G,B,D]2 [D,D]>[D,D] [D,D]>[D,D] | %24
 [G,DG]2 [G,B,G]2 [G,B,G]2[K:bass] [C,G,]2 | [D,D]4 [D,C]2 z2 | [G,B,]6 z2 |] %27
V:3
 x8 | x8 | x8 | x8 |[M:3/4][K:treble] B,2 z2 z2 |[M:1/4] x2 |[M:4/4] x15/2[K:bass] x/ | x8 | x8 | %9
[M:3/4] x6 |[M:1/4] x2 |[M:4/4] x8 | x8 | x8 | z2 G,2[K:treble] z4 | x2[K:bass] x6 | x8 | x8 | %18
 D,2- [D,-A,]>[D,-C] [D,F,]2 z2 | x8 | x8 | x8 | z2 G,2[K:treble] z4 | x2[K:bass] x6 | %24
 x6[K:bass] x2 | x8 | x8 |] %27
V:4
 x8 | x8 | x8 | x8 |[M:3/4] x6 |[M:1/4] x2 |[M:4/4] x8 | x8 | x8 |[M:3/4] x6 |[M:1/4] x2 | %11
[M:4/4] z2 D>D D2 D>E | z2 C>C C2 E>D | x8 | z2 Ec B2 B>A | z2 D>D D2 D>E | z2 D>D D2 F>G | x8 | %18
 z2 F>E D2 B>A | z2 D>D D2 D>E | z2 C>C C2 E>D | x8 | z2 Ec B2 D>D | x8 | x8 | x8 | x8 |] %27

